icons/box-cross.svg

<svg xmlns="http://www.w3.org/2000/svg" viewBox="0 0 24 24" fill="currentColor">
  <path d="M7 3.75C5.21421 3.75 3.75 5.21421 3.75 7v10c0 1.7858 1.46421 3.25 3.25 3.25.41421 0 .75.3358.75.75s-.33579.75-.75.75c-2.61421 0-4.75-2.1358-4.75-4.75V7c0-2.61421 2.13579-4.75 4.75-4.75h10c2.6142 0 4.75 2.13579 4.75 4.75v5c0 .4142-.3358.75-.75.75s-.75-.3358-.75-.75V7c0-1.78579-1.4642-3.25-3.25-3.25h-1.25V7.5c0 1.21421-1.0358 2.25-2.25 2.25h-3c-1.21421 0-2.25-1.03579-2.25-2.25V3.75H7Zm2.75 0V7.5c0 .38579.3642.75.75.75h3c.3858 0 .75-.36421.75-.75V3.75h-4.5Zm7.8803 13.4805c.2929-.2929.2929-.7677 0-1.0606-.2929-.2929-.7678-.2929-1.0607 0l-1.1697 1.1696-1.1696-1.1696c-.2929-.2929-.7678-.2929-1.0607 0-.2929.2929-.2929.7677 0 1.0606l1.1697 1.1697-1.1697 1.1697c-.2929.2929-.2929.7677 0 1.0606.2929.2929.7678.2929 1.0607 0l1.1696-1.1696 1.1697 1.1696c.2929.2929.7678.2929 1.0607 0 .2929-.2929.2929-.7677 0-1.0606l-1.1697-1.1697 1.1697-1.1697Z"/>
</svg>

<svg width="24" height="24" viewBox="0 0 24 24" fill="none" xmlns="http://www.w3.org/2000/svg">
<path fill-rule="evenodd" clip-rule="evenodd" d="M7 3.75C5.21421 3.75 3.75 5.21421 3.75 7V17C3.75 18.7858 5.21421 20.25 7 20.25C7.41421 20.25 7.75 20.5858 7.75 21C7.75 21.4142 7.41421 21.75 7 21.75C4.38579 21.75 2.25 19.6142 2.25 17V7C2.25 4.38579 4.38579 2.25 7 2.25H9H15H17C19.6142 2.25 21.75 4.38579 21.75 7V12C21.75 12.4142 21.4142 12.75 21 12.75C20.5858 12.75 20.25 12.4142 20.25 12V7C20.25 5.21421 18.7858 3.75 17 3.75H15.75V7.5C15.75 8.71421 14.7142 9.75 13.5 9.75H10.5C9.28579 9.75 8.25 8.71421 8.25 7.5V3.75H7ZM9.75 3.75V7.5C9.75 7.88579 10.1142 8.25 10.5 8.25H13.5C13.8858 8.25 14.25 7.88579 14.25 7.5V3.75H9.75ZM17.6303 17.2305C17.9232 16.9376 17.9232 16.4628 17.6303 16.1699C17.3374 15.877 16.8625 15.877 16.5696 16.1699L15.3999 17.3395L14.2303 16.1699C13.9374 15.877 13.4625 15.877 13.1696 16.1699C12.8767 16.4628 12.8767 16.9376 13.1696 17.2305L14.3393 18.4002L13.1696 19.5699C12.8767 19.8628 12.8767 20.3376 13.1696 20.6305C13.4625 20.9234 13.9374 20.9234 14.2303 20.6305L15.3999 19.4609L16.5696 20.6305C16.8625 20.9234 17.3374 20.9234 17.6303 20.6305C17.9232 20.3376 17.9232 19.8628 17.6303 19.5699L16.4606 18.4002L17.6303 17.2305Z" fill="black"/>
</svg>
